!!!COM: Bach, Johann Sebastian
!!!OPR: Joh. Seb. Bachs vierstimmige Choralgesänge
!!!XEN: Four-part Chorales
!!!OTL: 74. Für deinen Thron tret' ich hiermit
!!!SCT: BWV 327
!!!SCA: Thematisch-systematisches Verzeichnis der musikalischen Werke Johann Sebastian Bach: Bach-Werke-Verzeichnis (Schmieder)
!!!YOR: Bach Gesellschaft Edition xxxix
!!!ENC: Steven Rasmussen
!!!CDT: 1685/3//-1750/7/28/
!!!OCY: Deutschland
!!!YEC: Copyright (c) 1994, 2000 Center for Computer Assisted Research in the Humanities
!!!YEM: Rights to all derivative editions reserved
!!!YEN: United States of America
**kern	**kern	**kern	**silbe	**kern	**silbe
*I:[BASSO]	*I:[TENORE]	*I:[ALTO]	*I:[ALTO]	*I:[SOPRANO]	*I:[SOPRANO]
*clefF4	*clefGv2	*clefG2	*	*clefG2	*
*k[f#c#]	*k[f#c#]	*k[f#c#]	*	*k[f#c#]	*
*D:	*D:	*D:	*	*D:	*
*M3/4	*M3/4	*M3/4	*	*M3/4	*
4D	4f#	4a	.	4dd	FÃ¼r
=1	=1	=1	=1	=1	=1
4BB	2f#	2b	.	2dd	dei-
4D	.	.	.	.	.
4F#	4f#	4a	.	4cc#	-nen
=2	=2	=2	=2	=2	=2
4G	2d	2g	.	2b	Thron
4B	.	.	.	.	.
4d	4d	4f#	.	4a	tret'
=3	=3	=3	=3	=3	=3
4B	2d	4f#	ich	4dd	ich
4G	.	4b	.	2ee	hier-
4A	4c#	4a	hier-	.	.
=4	=4	=4	=4	=4	=4
2D;	2d;	2a;	-mit,	2ff#;	-mit,
4A#	4c#	4cc#	.	4ff#	o
=5	=5	=5	=5	=5	=5
2B	2d	2b	.	2ff#	Gott,
4A	4d	4b	.	4ff#	und
=6	=6	=6	=6	=6	=6
4G#	4d	4b	.	2ee	dich
4A	4c#	4a	.	.	.
4F#	4d	4a	.	4ff#	de-
=7	=7	=7	=7	=7	=7
4C#	4e	4a	.	4gg	-mÃ¼-
(4D	(4A	(4dd	.	2ff#	-tig
4F#)	4d)	4a)	.	.	.
=8	=8	=8	=8	=8	=8
2A;	2c#;	2a;	.	2ee;	bitt':
4B	4f#	4b	.	4dd	wend'
=9	=9	=9	=9	=9	=9
2c#	2e	2a	.	2ee	dein
4d	4d	4a	.	4ff#	ge-
=10	=10	=10	=10	=10	=10
4G	4d	4b	.	2ee	-nÃ¤-
4A	4c#	8aL	.	.	.
.	.	8gJ	.	.	.
4B	4d	4f#	.	4dd	-dig
=11	=11	=11	=11	=11	=11
4G	4d	4b	.	4b	An-
(4E	(4g	(4b	.	2cc#	-ge-
4F#)	4f#)	4a#)	.	.	.
=12	=12	=12	=12	=12	=12
2BB;	2f#;	2b;	.	2dd;	-sicht
4c#	4e	4a	.	4aa	von
=13	=13	=13	=13	=13	=13
4d	2f#	2a	.	2ff#	mir,
4c#	.	.	.	.	.
4B	4f#	4b	.	4dd	dem
=14	=14	=14	=14	=14	=14
4c#	2e	2a	.	2ee	ar-
4B	.	.	.	.	.
4A	4c#	4a	.	4gg	-men
=15	=15	=15	=15	=15	=15
4d	4A	4a	.	4ff#	SÃ¼n-
(4G	(4B	2g	.	2ee	-der,
4A)	4c#)	.	.	.	.
=16	=16	=16	=16	=16	=16
2D;	2A;	2f#;	.	2dd;	nicht.
==|!	==|!	==|!	==|!	==|!	==|!
*-	*-	*-	*-	*-	*-
!!!RWG: Key is interpreted using the Humdrum key tool.
!!!URL-pdf: https://s9.imslp.org/files/imglnks/usimg/6/6b/IMSLP24489-PMLP09471-CCARH_Bach_Chorales.pdf#page=51 Musedata edition
!!!URL-pdf: https://s9.imslp.org/files/imglnks/usimg/7/7a/IMSLP04155-Bach_-_BGA_253-438.pdf#page=39 	Bach-Gesellschaft Ausgabe, Band 39 (pp.175-276) Leipzig: Breitkopf und Härtel, 1892. Plate B.W. XXXIX.
!!!END: 1994/06/08
!!!EMD: Converted from MuseData to Humdrum Dec 19, 2000, by Andreas Kornstaedt using muse2kern.
!!!EED: Craig Stuart Sapp
!!!EEV: 2024/03/31
!!!filter-keyboard: satb2gs
